public/illustrations/_newspaper-with-id.svg

<svg
            width="81"
            height="81"
            viewBox="0 0 81 81"
            fill="none"
            xmlns="http://www.w3.org/2000/svg"
          >
            <path
              d="M52.1297 17.7233C53.7126 17.7203 55.2248 17.7141 56.7677 17.6956C57.1396 17.6956 57.5115 17.6987 57.8526 17.7141C58.0585 17.7233 58.2614 17.8001 58.4489 17.9169C58.6087 18.046 58.7255 18.2305 58.7839 18.4395C58.9683 18.9958 59.0544 19.5643 59.0851 20.1575C58.9898 25.7943 58.8546 31.4158 58.7193 37.0372C58.5042 46.9062 58.2768 56.7476 58.0893 66.6012C58.1016 67.0008 58.1661 67.3757 58.2614 67.7353C58.4273 68.4022 58.2552 68.8479 57.616 69.0692C57.3639 69.1829 57.075 69.2106 56.7984 69.2014C48.9855 69.1399 41.1481 69.0907 33.3229 69.0016C31.9736 69.0016 30.6551 68.9862 29.3212 68.9462C28.7434 68.937 28.1686 68.8571 27.5816 68.7496C26.8839 68.6236 26.6349 68.3654 26.5704 67.6216C26.4044 65.9773 26.2508 64.3606 26.0848 62.7193C24.8708 49.1468 23.6444 35.5466 22.4273 21.9709C22.3505 21.1964 22.2982 20.4096 22.2214 19.6381C22.1538 18.9619 22.3536 18.4333 23.0512 18.1874L23.1342 18.1505C23.9702 17.2346 25.1812 17.2316 26.2416 16.8904C28.5375 16.2296 30.861 15.6242 33.1723 14.9879C35.7049 14.321 38.2344 13.6571 40.7547 12.9625C42.9522 12.3785 45.1652 11.7546 47.3627 11.1706C47.6977 11.0876 48.0174 10.977 48.3217 10.9063C48.6013 10.7803 48.9302 10.8356 49.213 10.9432C49.4957 11.0507 49.7355 11.2813 49.8615 11.5609L50.2026 12.317C50.8296 14.0904 51.4628 15.7932 52.1021 17.5943L52.1236 17.7203L52.1297 17.7233ZM24.3821 20.0192C25.799 35.691 27.1912 51.3074 28.5989 66.8163C28.8048 66.8255 28.8848 66.8563 29.0231 66.8624L55.5936 67.0499C55.6489 67.0253 55.7196 67.0284 55.7473 67.0161L55.8303 66.9792C55.8856 66.9546 55.9009 66.9146 55.944 66.8593L56.949 19.8379L24.4066 20.0069L24.379 20.0192H24.3821ZM48.2571 13.2298L31.7861 17.668L31.8476 17.8094C31.82 17.8217 49.8308 17.711 49.8308 17.711C49.3144 16.1896 48.798 14.739 48.2817 13.2176L48.254 13.2298H48.2571Z"
              fill="#3558A2"
            />
            <path
              d="M29.764 23.2955C30.0682 23.2248 30.3602 23.1972 30.6614 23.1941C34.8721 23.188 39.0798 23.1849 43.2628 23.1941C44.1695 23.191 44.5814 23.5783 44.5967 24.5157C44.6367 26.1816 44.6521 27.8597 44.6521 29.5102C44.6828 33.4043 44.7166 37.2984 44.7473 41.1925C44.7535 41.3585 44.7627 41.5245 44.7412 41.7027C44.6551 42.7846 44.0404 43.3654 42.9924 43.4331C41.4771 43.5068 39.9864 43.5714 38.4712 43.6452C36.5287 43.7435 34.5709 43.8142 32.6284 43.9125C32.2965 43.9279 31.9677 43.9402 31.6234 43.9248C30.4555 43.8757 30.0037 43.473 29.9576 42.3143C29.85 40.5778 29.7547 38.8658 29.6502 37.1293C29.4259 33.2536 29.1861 29.3503 28.9495 25.4469C28.9341 25.1857 28.931 24.8814 28.9157 24.6202C28.8849 24.3313 28.9649 24.0578 29.1277 23.818C29.2876 23.5783 29.5027 23.3785 29.767 23.2955H29.764ZM34.448 32.141L34.1714 31.5232C33.9685 31.0745 33.8794 30.5766 33.8886 30.0664C33.8978 29.5562 34.0115 29.0675 34.2113 28.6065C34.3957 28.1178 34.7308 27.666 35.118 27.3218C35.5329 26.9683 36.0093 26.7532 36.5349 26.6518C37.0605 26.5504 37.583 26.5841 38.0993 26.7563C38.6157 26.9284 39.0429 27.2081 39.4271 27.6076C40.4844 28.6833 40.721 29.9589 40.3583 31.4003C40.2938 31.6309 40.2293 31.8614 40.1678 32.0243L42.559 33.4442L42.5067 25.3793L31.0887 25.3886C31.2669 28.4098 31.4605 31.388 31.6265 34.3816L34.4541 32.1995V32.1318L34.448 32.141ZM32.0568 41.7396C32.4164 41.7119 32.7883 41.715 33.1294 41.7304C33.3354 41.7396 33.5567 41.7058 33.7134 41.6043C33.9101 41.5152 34.0392 41.3554 34.1161 41.1525C34.6785 40.2274 35.3331 39.3607 35.9325 38.4479L38.9783 33.979C38.7755 33.9021 38.5849 33.853 38.3944 33.8038C37.4631 33.684 36.538 33.7946 35.6989 34.105C34.2451 34.6921 33.0557 35.7985 32.3519 37.2277C32.1736 37.5781 31.897 37.9377 31.9093 38.2696C31.8877 39.4253 32.0107 40.5164 32.0814 41.7304L32.0537 41.7426L32.0568 41.7396ZM36.4243 41.5644L42.4606 41.2755C42.519 41.1802 42.5344 41.1402 42.5344 41.1402C42.5313 40.2336 42.5559 39.3115 42.5498 38.4049C42.5498 37.5053 42.3121 36.7021 41.8367 35.9952C41.5355 35.6264 41.2466 35.2822 40.9024 34.9656L36.3935 41.5767L36.4212 41.5644H36.4243ZM36.0954 30.5582C36.4488 31.3419 36.8761 31.6216 37.457 31.5632C37.8995 31.4987 38.2776 30.9916 38.3175 30.4015C38.3267 30.1955 38.3206 29.9619 38.2622 29.7529C38.2038 29.4763 38.0348 29.2489 37.8227 29.0737C37.6106 28.8985 37.3525 28.7786 37.0789 28.7694C36.79 28.8001 36.5503 28.9416 36.3228 29.1106C36.12 29.335 36.0278 29.5808 35.9878 29.8667C35.9909 30.1003 35.997 30.3338 36.0278 30.5551H36.0954V30.5582Z"
              fill="#3558A2"
            />
            <path
              d="M50.7007 52.334C50.7622 52.4754 50.8267 52.6136 50.7929 52.7642C50.7991 52.9302 50.7653 53.0808 50.7192 53.2007C50.6454 53.3359 50.5716 53.4712 50.4426 53.5603C50.3135 53.6525 50.1875 53.7416 50.0614 53.7662C49.7572 53.8369 49.4652 53.8646 49.164 53.8677C43.7085 54.0275 38.2438 54.1596 32.7883 54.3195C32.527 54.3348 32.2228 54.3379 31.9492 54.3256C31.8109 54.3195 31.6757 54.3133 31.5405 54.2395C31.4175 54.1934 31.313 54.1074 31.2055 54.0183C31.0979 53.9322 31.0364 53.7908 30.9841 53.6801C30.9319 53.5695 30.8704 53.4281 30.9042 53.2775C30.9104 53.1392 30.9165 53.004 30.9903 52.8688C31.0364 52.7458 31.1224 52.6413 31.2116 52.5337C31.3007 52.4262 31.4114 52.377 31.5497 52.3125C31.6603 52.2633 31.814 52.2264 31.9523 52.2325C32.5332 52.1741 33.1387 52.1711 33.7042 52.1526C38.8001 52.0205 43.896 51.8852 48.9796 51.7223C49.2808 51.7223 49.585 51.7223 49.9016 51.7469C50.0799 51.7684 50.2428 51.8299 50.378 51.9037C50.5255 52.0051 50.6454 52.1219 50.7192 52.2878L50.7038 52.3278L50.7007 52.334Z"
              fill="#3558A2"
            />
            <path
              d="M50.1046 49.8043C49.871 49.8074 49.496 49.875 49.164 49.8904L38.7264 50.1332C36.661 50.1855 34.6233 50.2255 32.5456 50.2501C32.2444 50.2501 31.9401 50.25 31.6112 50.1978C31.393 50.1609 31.2055 50.0441 31.0611 49.872C30.9166 49.6999 30.8152 49.4755 30.8244 49.2696C30.8059 49.0759 30.8705 48.8454 30.9996 48.6856C31.1164 48.4981 31.3008 48.3814 31.5098 48.323C31.7618 48.2093 32.0507 48.1815 32.3273 48.1908C37.9304 48.0647 43.5641 47.9265 49.1794 47.8281C49.5114 47.8127 49.8372 47.8681 50.166 47.9234C50.3566 47.9726 50.5317 48.0617 50.6485 48.2461C50.7807 48.3906 50.8391 48.5965 50.8606 48.7901C50.8637 49.0237 50.7869 49.2265 50.6424 49.4263C50.5256 49.6138 50.3258 49.7706 50.1291 49.8597L50.1046 49.8043Z"
              fill="#3558A2"
            />
            <path
              d="M32.7077 61.9356C32.929 61.9049 33.178 61.8588 33.4116 61.8557C34.9237 61.8495 36.4789 61.8556 38.0064 61.8802C39.4356 61.911 40.8372 61.9571 42.2664 61.9878C42.4047 61.994 42.5399 62.0001 42.6782 62.0063C42.9241 62.0309 43.1699 62.1231 43.3544 62.3106C43.5388 62.498 43.6402 62.7224 43.6556 62.9836C43.6709 63.2449 43.5787 63.4908 43.4343 63.6906C43.2898 63.8903 43.0501 64.0317 42.8103 64.1054C42.6013 64.1669 42.3678 64.17 42.1618 64.1608C41.1168 64.1608 40.0995 64.1454 39.0822 64.13C37.2135 64.0932 35.3448 64.0594 33.5007 64.0102C33.2272 63.9979 32.9505 63.9887 32.6801 63.9088C32.4618 63.8719 32.302 63.7428 32.1576 63.5706C32.0131 63.3985 31.9517 63.1896 31.9332 62.9959C31.8963 62.5411 32.1483 62.123 32.72 61.9018L32.7046 61.9417L32.7077 61.9356Z"
              fill="#3558A2"
            />
            <path
              d="M43.2172 58.9974C43.2664 59.1081 43.3187 59.2218 43.3125 59.3601C43.334 59.4861 43.3279 59.6213 43.2818 59.7443C43.2357 59.8672 43.1896 59.9871 43.0881 60.067C43.0021 60.1746 42.9007 60.2514 42.79 60.3037C42.538 60.4174 42.2614 60.4758 41.9848 60.4635C39.0926 60.5496 36.2004 60.6387 33.3082 60.7247C33.047 60.7401 32.8134 60.7463 32.5521 60.694C32.3339 60.6571 32.1464 60.5403 31.9897 60.3405C31.8452 60.1684 31.7561 59.9748 31.753 59.7381C31.75 59.5045 31.8145 59.2741 31.959 59.0712C32.1034 58.8684 32.3155 58.7423 32.5245 58.6809C32.7611 58.6071 33.0224 58.5917 33.256 58.5886C35.9699 58.4811 38.6992 58.4012 41.4254 58.3213C41.7266 58.3213 42.0432 58.3459 42.3321 58.3858C42.5103 58.4073 42.6732 58.4688 42.8208 58.5702C42.9683 58.6716 43.0728 58.8284 43.1466 58.9974H43.2142H43.2172Z"
              fill="#3558A2"
            />
            <path
              d="M53.5002 60.8107C53.2789 60.8414 53.03 60.8875 52.7964 60.8906C50.9923 60.9275 49.1604 60.9736 47.3563 61.0105C47.095 61.0259 46.8461 61.0044 46.6156 60.9398C46.425 60.8906 46.2375 60.7738 46.1054 60.6294C45.9609 60.4573 45.8718 60.2636 45.8533 60.07C45.8226 59.8487 45.8871 59.6182 46.0039 59.4307C46.1207 59.2432 46.2929 59.0987 46.5295 59.0249C46.7816 58.9112 47.0705 58.8836 47.3348 58.8652C49.1389 58.8283 50.9707 58.7822 52.7749 58.7453C53.0361 58.7299 53.2851 58.7514 53.5156 58.816C53.7338 58.8529 53.9213 58.9696 54.0535 59.1141C54.1979 59.2862 54.287 59.4799 54.3055 59.6735C54.3424 60.1284 54.118 60.531 53.531 60.7984L53.5033 60.8107H53.5002Z"
              fill="#3558A2"
            />
            <path
              d="M54.3086 25.9449C54.3578 26.0555 54.4223 26.1969 54.4162 26.3352C54.41 26.4735 54.4039 26.6088 54.3578 26.7317C54.3117 26.8547 54.2256 26.9591 54.1365 27.0667C54.0382 27.1466 53.9367 27.2234 53.7984 27.288C53.5187 27.414 53.1991 27.457 52.8979 27.457C51.441 27.4386 50.0118 27.4079 48.555 27.3864C48.3214 27.3894 48.0633 27.3372 47.802 27.288C47.5715 27.2234 47.3717 27.079 47.2426 26.8669C47.0859 26.6672 47.0398 26.4182 47.049 26.2123C47.0736 25.9664 47.1781 25.7513 47.3379 25.5761C47.4977 25.4009 47.7067 25.2749 47.971 25.2595L48.054 25.2226C49.8274 25.2687 51.6162 25.2718 53.3866 25.3179C53.5925 25.3271 53.7677 25.4163 53.9429 25.5054C54.1027 25.6345 54.2072 25.7912 54.281 25.9603L54.3086 25.948V25.9449Z"
              fill="#3558A2"
            />
            <path
              d="M54.1153 30.9178C54.1768 31.0592 54.2413 31.1975 54.2198 31.3757C54.2259 31.5417 54.1922 31.6923 54.1184 31.8245C54.0446 31.9566 53.9278 32.0796 53.8018 32.1687L53.3807 32.3562C53.1318 32.4023 52.8982 32.4054 52.6492 32.3808C51.3153 32.3408 49.9722 32.2701 48.666 32.2179C48.4324 32.2209 48.1742 32.1687 47.9253 32.1472C47.6763 32.1257 47.4489 31.9905 47.2645 31.803C47.1077 31.6032 47.0063 31.3788 47.0186 31.1053C47.0309 30.8318 47.1354 30.6135 47.3075 30.4015C47.495 30.217 47.7193 30.1156 47.9806 30.1003C48.0636 30.0634 48.2019 30.0695 48.3003 30.0572C49.92 30.1371 51.5274 30.1893 53.1195 30.2846C53.3531 30.2816 53.5436 30.3307 53.7311 30.4475C53.9186 30.5643 54.0631 30.7365 54.1522 30.9332L54.1122 30.9178H54.1153Z"
              fill="#3558A2"
            />
            <path
              d="M53.1446 37.4521C52.9233 37.4828 52.6898 37.489 52.4838 37.4798C50.987 37.3753 49.4933 37.2738 47.9996 37.1693C47.7936 37.1601 47.6031 37.1109 47.4402 37.0494C47.2374 36.9726 47.0376 36.8251 46.9208 36.6438C46.804 36.4624 46.7333 36.2227 46.7548 35.9768C46.7917 35.7586 46.8562 35.5281 47.0284 35.3836C47.1882 35.2115 47.4125 35.1101 47.6338 35.0793C47.8828 35.0332 48.1287 35.0578 48.3776 35.0824C49.7361 35.1808 51.0823 35.2484 52.45 35.3744C52.7666 35.402 53.0647 35.4696 53.3229 35.5895C53.4981 35.6786 53.6579 35.8109 53.7624 35.9645C53.8392 36.1336 53.9253 36.3302 53.8761 36.5208C53.8669 36.7267 53.7901 36.9296 53.661 37.0894C53.5319 37.2492 53.3598 37.3937 53.1631 37.4828L53.1508 37.4551L53.1446 37.4521Z"
              fill="#3558A2"
            />
          </svg>

<svg xmlns="http://www.w3.org/2000/svg" width="81" height="81" fill="none" viewBox="0 0 81 81"><path fill="#3558a2" d="M52.13 17.723a456 456 0 0 0 4.638-.027c.372 0 .743.003 1.085.018.206.01.408.086.596.203.16.129.276.313.335.522.184.557.27 1.125.301 1.718-.095 5.637-.23 11.259-.366 16.88-.215 9.87-.442 19.71-.63 29.564.013.4.077.775.172 1.134.166.667-.006 1.113-.645 1.334-.252.114-.541.142-.818.132-7.812-.061-15.65-.11-23.475-.2-1.35 0-2.668-.015-4.002-.055-.578-.009-1.152-.089-1.74-.196-.697-.126-.946-.385-1.01-1.128-.167-1.645-.32-3.261-.486-4.903-1.214-13.572-2.44-27.172-3.658-40.748-.076-.775-.129-1.561-.206-2.333-.067-.676.133-1.205.83-1.45l.083-.037c.836-.916 2.047-.92 3.108-1.26 2.296-.661 4.619-1.267 6.93-1.903 2.533-.667 5.062-1.33 7.583-2.025 2.197-.584 4.41-1.208 6.608-1.792.335-.083.654-.194.959-.265.28-.126.608-.07.891.037s.523.338.648.618l.342.756c.627 1.773 1.26 3.476 1.9 5.277l.02.126zM24.382 20.02c1.417 15.672 2.81 31.288 4.217 46.797.206.01.286.04.424.046l26.57.188c.056-.025.127-.022.154-.034l.083-.037c.056-.024.07-.064.114-.12l1.005-47.021-32.542.169-.028.012zm23.875-6.79-16.47 4.439.06.141c-.027.013 17.984-.098 17.984-.098-.517-1.521-1.033-2.972-1.55-4.493l-.027.012z"/><path fill="#3558a2" d="M29.764 23.296a4 4 0 0 1 .897-.102c4.211-.006 8.419-.01 12.602 0 .907-.003 1.318.384 1.334 1.322.04 1.666.055 3.344.055 4.994.03 3.894.065 7.788.095 11.683.007.166.016.332-.006.51-.086 1.082-.7 1.662-1.749 1.73-1.515.074-3.006.138-4.52.212-1.943.098-3.901.17-5.844.267-.331.016-.66.028-1.005.013-1.168-.05-1.62-.452-1.665-1.61-.108-1.737-.203-3.45-.308-5.186-.224-3.875-.464-7.779-.7-11.682-.016-.261-.019-.566-.034-.827-.031-.289.049-.562.212-.802.16-.24.375-.44.639-.523zm4.684 8.845-.277-.618a3.4 3.4 0 0 1-.282-1.457c.009-.51.122-.998.322-1.46.185-.488.52-.94.907-1.284a3 3 0 0 1 1.417-.67 3.05 3.05 0 0 1 1.564.104c.517.172.944.452 1.328.852 1.057 1.075 1.294 2.35.931 3.792-.064.23-.129.461-.19.624l2.391 1.42-.052-8.065-11.418.01c.178 3.02.372 5.999.538 8.993l2.827-2.182v-.068zm-2.391 9.599c.36-.028.731-.025 1.072-.01.206.01.428-.024.584-.126a.77.77 0 0 0 .403-.451c.563-.926 1.217-1.792 1.816-2.705l3.046-4.469c-.203-.077-.393-.126-.584-.175a5.7 5.7 0 0 0-2.695.301 6.4 6.4 0 0 0-3.347 3.123c-.178.35-.455.71-.443 1.042-.021 1.155.102 2.246.172 3.46l-.027.013zm4.367-.176 6.037-.288c.058-.096.073-.136.073-.136-.003-.906.022-1.828.016-2.735q0-1.35-.713-2.41c-.302-.369-.59-.713-.935-1.03l-4.508 6.612.027-.013zm-.329-11.006c.354.784.781 1.064 1.362 1.005.443-.064.82-.571.86-1.162.01-.206.004-.44-.055-.648-.058-.277-.227-.504-.44-.68a1.25 1.25 0 0 0-.743-.304c-.289.031-.529.173-.756.342-.203.224-.295.47-.335.756.003.233.009.467.04.688h.067zM50.7 52.334c.062.141.127.28.093.43a1.1 1.1 0 0 1-.074.437c-.074.135-.147.27-.276.36-.13.092-.255.18-.382.205a4 4 0 0 1-.897.102c-5.456.16-10.92.292-16.376.451a9 9 0 0 1-.839.007c-.138-.007-.273-.013-.409-.087a1.2 1.2 0 0 1-.334-.22c-.108-.087-.17-.228-.222-.339-.052-.11-.114-.252-.08-.402.006-.139.012-.274.086-.41.046-.122.132-.227.222-.334.089-.108.2-.157.338-.221a.95.95 0 0 1 .402-.08c.581-.059 1.187-.062 1.752-.08 5.096-.133 10.192-.268 15.276-.43.3 0 .605 0 .922.024.178.021.34.083.476.157a.9.9 0 0 1 .341.384l-.015.04zM50.105 49.804c-.234.003-.609.071-.941.086l-10.438.243c-2.065.052-4.103.092-6.18.117-.302 0-.606 0-.935-.052a.9.9 0 0 1-.55-.326c-.144-.172-.246-.397-.237-.602a.85.85 0 0 1 .176-.584.85.85 0 0 1 .51-.363c.252-.114.54-.142.817-.132 5.603-.126 11.237-.265 16.852-.363.332-.015.658.04.987.095.19.05.366.139.483.323.132.145.19.35.212.544a1.03 1.03 0 0 1-.219.636 1.2 1.2 0 0 1-.513.434zM32.708 61.936c.221-.031.47-.077.704-.08 1.512-.007 3.067 0 4.594.024 1.43.031 2.831.077 4.26.108l.412.018c.246.025.492.117.676.305q.278.28.302.673c.015.26-.077.507-.222.707-.144.2-.384.34-.624.414a2 2 0 0 1-.648.056c-1.045 0-2.062-.016-3.08-.031-1.868-.037-3.737-.07-5.581-.12-.274-.012-.55-.021-.82-.101-.22-.037-.379-.166-.523-.338a1.04 1.04 0 0 1-.225-.575c-.037-.455.215-.873.787-1.094l-.015.04zM43.217 58.997c.05.111.102.225.096.363a.75.75 0 0 1-.031.384c-.046.123-.092.243-.194.323a.8.8 0 0 1-.298.237 1.8 1.8 0 0 1-.805.16q-4.339.13-8.677.26a2.8 2.8 0 0 1-.756-.03.9.9 0 0 1-.562-.354.93.93 0 0 1-.237-.602 1.1 1.1 0 0 1 .206-.667c.144-.203.357-.329.566-.39a2.6 2.6 0 0 1 .731-.092c2.714-.108 5.443-.188 8.17-.268.3 0 .617.025.906.065q.267.032.489.184a1 1 0 0 1 .326.427h.07M53.5 60.81c-.221.031-.47.078-.704.08-1.804.038-3.636.084-5.44.12a2.3 2.3 0 0 1-.74-.07 1.1 1.1 0 0 1-.51-.31 1.04 1.04 0 0 1-.253-.56.98.98 0 0 1 .15-.64.93.93 0 0 1 .526-.405c.253-.114.541-.141.806-.16 1.804-.037 3.636-.083 5.44-.12.261-.015.51.006.74.071a.95.95 0 0 1 .538.298c.145.172.234.366.253.56.036.454-.188.857-.775 1.124l-.028.013zM54.309 25.945c.049.11.113.252.107.39a1.3 1.3 0 0 1-.058.397 1.2 1.2 0 0 1-.221.335c-.099.08-.2.156-.339.221-.28.126-.599.169-.9.169-1.457-.018-2.886-.05-4.343-.07-.234.002-.492-.05-.753-.099a.95.95 0 0 1-.56-.421 1 1 0 0 1-.193-.655c.025-.246.13-.46.289-.636a.92.92 0 0 1 .633-.317l.083-.036c1.773.046 3.562.049 5.333.095.206.01.38.098.556.187.16.13.264.286.338.455l.028-.012zM54.115 30.918c.062.141.126.28.105.458a.84.84 0 0 1-.102.448c-.073.133-.19.256-.316.345l-.421.187a2.5 2.5 0 0 1-.732.025c-1.334-.04-2.677-.11-3.983-.163-.234.003-.492-.05-.74-.07-.25-.022-.477-.158-.662-.345-.156-.2-.258-.424-.245-.698.012-.273.116-.492.288-.704q.282-.277.674-.3c.083-.038.22-.031.32-.044 1.619.08 3.226.132 4.819.228a1.07 1.07 0 0 1 .611.163c.188.116.332.288.421.485l-.04-.015zM53.145 37.452c-.222.03-.455.037-.661.028q-2.244-.156-4.484-.31a1.8 1.8 0 0 1-.56-.12 1.1 1.1 0 0 1-.52-.406 1.08 1.08 0 0 1-.165-.667c.037-.218.101-.449.273-.593.16-.172.385-.274.606-.305.249-.046.495-.021.744.003 1.358.099 2.704.166 4.072.292.317.028.615.096.873.215.175.09.335.222.44.376.076.169.162.365.113.556a1 1 0 0 1-.215.568c-.13.16-.301.305-.498.394l-.012-.028z"/></svg>
